X:421
T: Hret, was ich euch erklr (5-17), S. 36
N: P0691
O: Lothringen
S: MERKELBACH-PINCK, Angelika: Verklingende Weisen, Bd 5, Kassel 1962]
R: geistliches, religises Lied, Ehestandslied]
M: 4/4
L: 1/8
K: Eb
G2 | A2G2F3B | G4z2
F2 | E3FGFE2 | D2E2F2
A2 | G2B2BAG2 | F3BA2
GF | E3FGFE2 | D2E2F2
B,2 | E4F4 | G3AB2
BA | B4A4 | G4z2

@@@ Tune index: 7971
